src/images/Icons/DarkBlue/Palette.svg

<svg fill="none" height="24" viewBox="0 0 24 24" width="24" xmlns="http://www.w3.org/2000/svg"><path d="m22 12v.1055c-.0156 1.4258-1.3125 2.3945-2.7383 2.3945h-3.8242c-1.0352 0-1.875.8398-1.875 1.875 0 .1328.0156.2617.0391.3867.082.3985.2539.7813.4218 1.168.2383.539.4727 1.0742.4727 1.6406 0 1.2422-.8438 2.3711-2.0859 2.4219-.1368.0039-.2735.0078-.4141.0078-5.51954 0-9.9961-4.4766-9.9961-10 0-5.52344 4.47656-10 10-10 5.5234 0 10 4.47656 10 10zm-15 1.25c0-.3315-.1317-.6495-.36612-.8839s-.55236-.3661-.88388-.3661-.64946.1317-.88388.3661-.36612.5524-.36612.8839.1317.6495.36612.8839.55236.3661.88388.3661.64946-.1317.88388-.3661.36612-.5524.36612-.8839zm0-3.75c.33152 0 .64946-.1317.88388-.36612s.36612-.55236.36612-.88388-.1317-.64946-.36612-.88388-.55236-.36612-.88388-.36612-.64946.1317-.88388.36612-.36612.55236-.36612.88388.1317.64946.36612.88388.55236.36612.88388.36612zm6.25-3.75c0-.33152-.1317-.64946-.3661-.88388s-.5524-.36612-.8839-.36612-.6495.1317-.8839.36612-.3661.55236-.3661.88388.1317.64946.3661.88388.5524.36612.8839.36612.6495-.1317.8839-.36612.3661-.55236.3661-.88388zm3.75 3.75c.3315 0 .6495-.1317.8839-.36612s.3661-.55236.3661-.88388-.1317-.64946-.3661-.88388-.5524-.36612-.8839-.36612-.6495.1317-.8839.36612-.3661.55236-.3661.88388.1317.64946.3661.88388.5524.36612.8839.36612z" fill="#2b3652"/></svg>

<svg width="24" height="24" viewBox="0 0 24 24" fill="none" xmlns="http://www.w3.org/2000/svg">
<path d="M22 12C22 12.0352 22 12.0703 22 12.1055C21.9844 13.5313 20.6875 14.5 19.2617 14.5H15.4375C14.4023 14.5 13.5625 15.3398 13.5625 16.375C13.5625 16.5078 13.5781 16.6367 13.6016 16.7617C13.6836 17.1602 13.8555 17.543 14.0234 17.9297C14.2617 18.4687 14.4961 19.0039 14.4961 19.5703C14.4961 20.8125 13.6523 21.9414 12.4102 21.9922C12.2734 21.9961 12.1367 22 11.9961 22C6.47656 22 2 17.5234 2 12C2 6.47656 6.47656 2 12 2C17.5234 2 22 6.47656 22 12ZM7 13.25C7 12.9185 6.8683 12.6005 6.63388 12.3661C6.39946 12.1317 6.08152 12 5.75 12C5.41848 12 5.10054 12.1317 4.86612 12.3661C4.6317 12.6005 4.5 12.9185 4.5 13.25C4.5 13.5815 4.6317 13.8995 4.86612 14.1339C5.10054 14.3683 5.41848 14.5 5.75 14.5C6.08152 14.5 6.39946 14.3683 6.63388 14.1339C6.8683 13.8995 7 13.5815 7 13.25ZM7 9.5C7.33152 9.5 7.64946 9.3683 7.88388 9.13388C8.1183 8.89946 8.25 8.58152 8.25 8.25C8.25 7.91848 8.1183 7.60054 7.88388 7.36612C7.64946 7.1317 7.33152 7 7 7C6.66848 7 6.35054 7.1317 6.11612 7.36612C5.8817 7.60054 5.75 7.91848 5.75 8.25C5.75 8.58152 5.8817 8.89946 6.11612 9.13388C6.35054 9.3683 6.66848 9.5 7 9.5ZM13.25 5.75C13.25 5.41848 13.1183 5.10054 12.8839 4.86612C12.6495 4.6317 12.3315 4.5 12 4.5C11.6685 4.5 11.3505 4.6317 11.1161 4.86612C10.8817 5.10054 10.75 5.41848 10.75 5.75C10.75 6.08152 10.8817 6.39946 11.1161 6.63388C11.3505 6.8683 11.6685 7 12 7C12.3315 7 12.6495 6.8683 12.8839 6.63388C13.1183 6.39946 13.25 6.08152 13.25 5.75ZM17 9.5C17.3315 9.5 17.6495 9.3683 17.8839 9.13388C18.1183 8.89946 18.25 8.58152 18.25 8.25C18.25 7.91848 18.1183 7.60054 17.8839 7.36612C17.6495 7.1317 17.3315 7 17 7C16.6685 7 16.3505 7.1317 16.1161 7.36612C15.8817 7.60054 15.75 7.91848 15.75 8.25C15.75 8.58152 15.8817 8.89946 16.1161 9.13388C16.3505 9.3683 16.6685 9.5 17 9.5Z" fill="#2B3652"/>
</svg>
